img/icones/seguro.svg

<svg width="32" height="32" viewBox="0 0 32 32" fill="none" xmlns="http://www.w3.org/2000/svg">
<path d="M24.0002 10.6667H22.6668V8.00004C22.6668 4.32004 19.6802 1.33337 16.0002 1.33337C12.3202 1.33337 9.3335 4.32004 9.3335 8.00004V10.6667H8.00016C6.5335 10.6667 5.3335 11.8667 5.3335 13.3334V26.6667C5.3335 28.1334 6.5335 29.3334 8.00016 29.3334H24.0002C25.4668 29.3334 26.6668 28.1334 26.6668 26.6667V13.3334C26.6668 11.8667 25.4668 10.6667 24.0002 10.6667ZM16.0002 22.6667C14.5335 22.6667 13.3335 21.4667 13.3335 20C13.3335 18.5334 14.5335 17.3334 16.0002 17.3334C17.4668 17.3334 18.6668 18.5334 18.6668 20C18.6668 21.4667 17.4668 22.6667 16.0002 22.6667ZM12.0002 10.6667V8.00004C12.0002 5.78671 13.7868 4.00004 16.0002 4.00004C18.2135 4.00004 20.0002 5.78671 20.0002 8.00004V10.6667H12.0002Z" fill="url(#paint0_linear_40_272)"/>
<defs>
<linearGradient id="paint0_linear_40_272" x1="16.0493" y1="1.33337" x2="16.0493" y2="29.3334" gradientUnits="userSpaceOnUse">
<stop stop-color="#FFBF00"/>
<stop offset="1" stop-color="#F2A60C"/>
</linearGradient>
</defs>
</svg>

<svg width="32" height="32" fill="none" xmlns="http://www.w3.org/2000/svg">
  <path d="M24 10.667h-1.334V8A6.669 6.669 0 0 0 16 1.333 6.67 6.67 0 0 0 9.333 8v2.667H8a2.675 2.675 0 0 0-2.667 2.666v13.334c0 1.466 1.2 2.666 2.667 2.666h16c1.466 0 2.666-1.2 2.666-2.666V13.333c0-1.466-1.2-2.666-2.666-2.666Zm-8 12A2.675 2.675 0 0 1 13.333 20c0-1.467 1.2-2.667 2.667-2.667 1.466 0 2.666 1.2 2.666 2.667 0 1.467-1.2 2.667-2.666 2.667Zm-4-12V8c0-2.213 1.786-4 4-4 2.213 0 4 1.787 4 4v2.667h-8Z" fill="url(#a)"/>
  <defs>
    <linearGradient id="a" x1="16" y1="1.333" x2="16" y2="29.333" gradientUnits="userSpaceOnUse">
      <stop stop-color="#FFBF00"/>
      <stop offset="1" stop-color="#F2A50C"/>
    </linearGradient>
  </defs>
</svg>
